X:224
T:Steirische Jodler und Taenze Nr. 1 - 48 (22.)
C:traditionell
A:Salzkammergut
S:MIDI erhalten von Christian Amon. Nach einer kopie im besitz von Johann Stoeckl eines manuscriptes. Stoeckl(zitiert von Amon): "diese sammlung wurde 1935 im hause der familie Hohenlohe-Schillingfuerst gefunden. Sie wurde von einem der beiden brueder Steinegger 1866 verfasst. Die originale sind im Ausseer Kammerhofmuseum".
M:3/4
L:1/8
K:G
V:1
GA |\
Bg G2 Bg | Af F2 AB | ca AB ca | Bg G2 GA |\
Bg G2 Bg | Af F2 AB | ca Bg Af | g4 |*
V:2
Bc |\
db Bc db | ca A2 cd | ec'cd ec' | db B2 Bc |\
db B2 db | ca A2 cd | ec'db ca | b4 |*
